X:87
T:Petticoat Tight. JJo5.087
Q:3/8=120
M:6/8
L:1/8
B:J.Johnson Choice Collection Vol 5, 1750
Z:vmp.Mike Hicken 2015 www.village-music-project.org.uk
N:* There is no closing repeat sign shown in the original.
K:D
D|FGA FGA|Bcd d2A|Bcd d2A|BGE E2D|
FGA FGA|Bcd d2A|Bcd d2A|AFD D2 ?
|: e|f2d ecA|faf ecA|Bcd d2A|BGE E2A|
BGB AFA|GEG F2A|BGB cAc|dAF D2 "*":|

